X:1
T: Endrick Water
C:
R:Strathspey
Q: 128
K:D
M:4/4
L:1/16
C3B,|:A,3C D2F2 A2d2 f2a2|((3f2e2d2) f3d eA3 eA3|A,3C D2F2 A3G F3D|EA3 ^GB3 cA3 A4|
A,3C D2F2 A2d2 f2a2|((3f2e2d2) f3d eA3 eA3|A,3C D2F2 A3G F3D|EA,3 EA,3 AD3 D4:|
|:A2f2 f4 A2g2 g4|f3a f3d c3e c2A2|((3f2e2d2) A3d B2d2 g2b2|Ad3 ce3 fd3 d4|
A2f2 f4 A2g2 g4|((3f2a2g2) ((3f2e2d2) ((3B2e2d2) ((3c2B2A2)|((3G2F2E2) D2F2 B,2D2 G2B2|((3A2f2d2) ((3c2g2e2) fd3 d4:|
